icons/linear-new-office-folder-gear-setting.svg

<svg xmlns="http://www.w3.org/2000/svg" width="32px" height="32px" viewBox="0 0 32 32" version="1.1">
    <title>linear-new-office-folder-gear-setting</title>
    <g id="linear-new-office-folder-gear-setting" stroke-width="1" fill-rule="evenodd">
        <path d="M24.5,16.1339746 L29.6961524,19.1339746 C30.0055535,19.3126074 30.1961524,19.6427344 30.1961524,20 L30.1961524,26 C30.1961524,26.3572656 30.0055535,26.6873926 29.6961524,26.8660254 L24.5,29.8660254 C24.1905989,30.0446582 23.8094011,30.0446582 23.5,29.8660254 L18.3038476,26.8660254 C17.9944465,26.6873926 17.8038476,26.3572656 17.8038476,26 L17.8038476,20 C17.8038476,19.6427344 17.9944465,19.3126074 18.3038476,19.1339746 L23.5,16.1339746 C23.8094011,15.9553418 24.1905989,15.9553418 24.5,16.1339746 Z M12,4 C12.2652165,4 12.5195704,4.10535684 12.7071068,4.29289322 L16.415,8 L29,8 C29.5128358,8 29.9355072,8.38604019 29.9932723,8.88337887 L30,9 L30,16.999 L28,15.844 L28,10 L16,10 C15.7789863,10 15.565516,9.92683553 15.3919705,9.79391937 L15.2928932,9.70710678 L11.585,6 L4,6 L4,26 L15.803,26 L15.803,28 L3,28 C2.44771525,28 2,27.5522847 2,27 L2,5 C2,4.44771525 2.44771525,4 3,4 L12,4 Z M24,18.155 L19.803,20.577 L19.803,25.422 L24,27.844 L28.196,25.422 L28.196,20.577 L24,18.155 Z M24,21 C25.1045695,21 26,21.8954305 26,23 C26,24.1045695 25.1045695,25 24,25 C22.8954305,25 22,24.1045695 22,23 C22,21.8954305 22.8954305,21 24,21 Z" id="&#24418;&#29366;" fill-rule="nonzero" />
    </g>
</svg>

<svg xmlns="http://www.w3.org/2000/svg" viewBox="0 0 32 32"><path fill="currentColor" d="m24.5 16.134 5.196 3a1 1 0 0 1 .5.866v6a1 1 0 0 1-.5.866l-5.196 3a1 1 0 0 1-1 0l-5.196-3a1 1 0 0 1-.5-.866v-6a1 1 0 0 1 .5-.866l5.196-3a1 1 0 0 1 1 0M12 4a1 1 0 0 1 .707.293L16.415 8H29a1 1 0 0 1 .993.883L30 9v7.999l-2-1.155V10H16a1 1 0 0 1-.608-.206l-.1-.087L11.586 6H4v20h11.803v2H3a1 1 0 0 1-1-1V5a1 1 0 0 1 1-1zm12 14.155-4.197 2.422v4.845L24 27.844l4.196-2.422v-4.845zM24 21a2 2 0 1 1 0 4 2 2 0 0 1 0-4"/></svg>
